img/bkg_workflow.svg

<?xml version="1.0" encoding="UTF-8" standalone="no"?>
<svg width="9px" height="468px" viewBox="0 0 9 468" version="1.1" xmlns="http://www.w3.org/2000/svg" xmlns:xlink="http://www.w3.org/1999/xlink" xmlns:sketch="http://www.bohemiancoding.com/sketch/ns">
    <!-- Generator: Sketch 3.3.1 (12002) - http://www.bohemiancoding.com/sketch -->
    <title>bkg_workflow</title>
    <desc>Created with Sketch.</desc>
    <defs></defs>
    <g id="work" stroke="none" stroke-width="1" fill="none" fill-rule="evenodd" sketch:type="MSPage">
        <g id="bkg_workflow" sketch:type="MSLayerGroup">
            <path d="M4.5,5.5 L4.5,459.5" id="Line" stroke="#D35400" stroke-linecap="square" sketch:type="MSShapeGroup"></path>
            <path d="M4.5,8 C6.709139,8 8.5,6.209139 8.5,4 C8.5,1.790861 6.709139,0 4.5,0 C2.290861,0 0.5,1.790861 0.5,4 C0.5,6.209139 2.290861,8 4.5,8 Z" id="Oval-7" fill="#D35400" sketch:type="MSShapeGroup"></path>
            <path d="M4.5,468 C6.709139,468 8.5,466.209139 8.5,464 C8.5,461.790861 6.709139,460 4.5,460 C2.290861,460 0.5,461.790861 0.5,464 C0.5,466.209139 2.290861,468 4.5,468 Z" id="Oval-7-Copy" fill="#D35400" sketch:type="MSShapeGroup"></path>
        </g>
    </g>
</svg>

<svg width="9" height="468" viewBox="0 0 9 468" xmlns="http://www.w3.org/2000/svg"><title>bkg_workflow</title><g fill="none" fill-rule="evenodd"><path d="M4.5 5.5v454" stroke="#D35400" stroke-linecap="square"/><path d="M4.5 8c2.21 0 4-1.79 4-4s-1.79-4-4-4-4 1.79-4 4 1.79 4 4 4zM4.5 468c2.21 0 4-1.79 4-4s-1.79-4-4-4-4 1.79-4 4 1.79 4 4 4z" fill="#D35400"/></g></svg>
